source/img/logo--youtube.svg

<svg fill="none" height="13" viewBox="0 0 15 13" width="15" xmlns="http://www.w3.org/2000/svg"><path d="m1.83356 12.8089c-.18723.1189-.40885.1852-.6373.1907-.228443.0055-.45363-.0501-.647543-.1598s-.347993-.2688-.443071-.4574c-.095077-.1886-.1269557-.3984-.0916698-.6034v-10.55803c-.0352859-.20492-.0034072-.414736.0916698-.603342.095078-.188607.249158-.347679.443071-.457428.193913-.1097484.4191-.16532927.647543-.15982773.22845.00550153.45007.07184263.6373.19076973l12.39974 5.501698c1.0223.44533 1.0223 1.16899 0 1.61432z" fill="#d22856"/></svg>

<svg width="15" height="13" viewBox="0 0 15 13" fill="none" xmlns="http://www.w3.org/2000/svg">
<path d="M1.83356 12.8089C1.64633 12.9278 1.42471 12.9941 1.19626 12.9996C0.967817 13.0051 0.74263 12.9495 0.548717 12.8398C0.354804 12.7301 0.200724 12.571 0.105646 12.3824C0.010569 12.1938 -0.0213097 11.984 0.0139762 11.779V1.22097C-0.0213097 1.01605 0.010569 0.806234 0.105646 0.617628C0.200724 0.429021 0.354804 0.269949 0.548717 0.1602C0.74263 0.0504516 0.967817 -0.00512927 1.19626 0.000372265C1.42471 0.0058738 1.64633 0.0722149 1.83356 0.191142L14.2333 5.69284C15.2556 6.13817 15.2556 6.86183 14.2333 7.30716L1.83356 12.8089Z" fill="#D22856"/>
</svg>
